X:1
T:The Moonshiner
M:3/4
L:1/4
K:G
 D| G G3/2 A/2| B G3/2 F/2| E E E| A2 G| F F F| A F3/2 E/2| D E C|\
 B,2 D| G G3/2 G/2| B G F| E E3/2 E/2| A2 A/2B/2| c AA/2-B/2| c A F/2E/2|\
 D E F| G2||
